X: 2348
T: TRIPLET HORNPIPE
%R: hornpipe, reel
B: James Kerr "Merry Melodies" v.2 p.38 #348
Z: 2016 John Chambers <jc:trillian.mit.edu>
M: C
L: 1/8
K: G
|:\
vG>vAuB>uc d>BA>G | g>fg>e e2d2 |\
(3Bdc (3BAG (3ced (3cBA | (3Bdc (3BAG (3FGA (3DEF |\
G>AB>c d>BA>G | g>fg>e e2d2 |
(3Bdc (3BAG (3ced (3cBA | (3fed (3cBA G2g2 ::\
d>ef>g (3fag (3fed | (3gba (3gfe (3fag (3fed |\
d>ef>g (3fag (3fed |
(3bd'^c' (3bag (3fag (3fed |\
(3Bdc (3BAG (3ced (3cBA | (3fag (3fed (3gba (3gfe |\
(3dba (3gfe (3ded (3cBA | G2g2 G,2z2 :|
